src/asset/24px/withdraw.svg

<svg width="24" height="24" viewBox="0 0 24 24" fill="none" xmlns="http://www.w3.org/2000/svg">
<path fill-rule="evenodd" clip-rule="evenodd" d="M21 12.9997C21.5523 12.9997 22 13.4474 22 13.9997V17.9997C22 19.6566 20.6569 20.9997 19 20.9997H5C3.34315 20.9997 2 19.6566 2 17.9997V13.9997C2 13.4474 2.44772 12.9997 3 12.9997C3.55228 12.9997 4 13.4474 4 13.9997V17.9997C4 18.552 4.44772 18.9997 5 18.9997H19C19.5523 18.9997 20 18.552 20 17.9997V13.9997C20 13.4474 20.4477 12.9997 21 12.9997ZM17.7071 8.70683C17.3166 9.09736 16.6834 9.09736 16.2929 8.70683L13 5.41394V13.9997C13 14.552 12.5523 14.9997 12 14.9997C11.4477 14.9997 11 14.552 11 13.9997V5.41394L7.70711 8.70683C7.31658 9.09736 6.68342 9.09736 6.29289 8.70683C5.90237 8.31631 5.90237 7.68314 6.29289 7.29262L11.2929 2.29262C11.6834 1.90209 12.3166 1.90209 12.7071 2.29262L17.7071 7.29262C18.0976 7.68314 18.0976 8.31631 17.7071 8.70683Z" fill="#808080"/>
</svg>

<svg width="24" height="24" fill="none" xmlns="http://www.w3.org/2000/svg"><path fill-rule="evenodd" clip-rule="evenodd" d="M21 13a1 1 0 011 1v4a3 3 0 01-3 3H5a3 3 0 01-3-3v-4a1 1 0 112 0v4a1 1 0 001 1h14a1 1 0 001-1v-4a1 1 0 011-1zm-3.293-4.293a1 1 0 01-1.414 0L13 5.414V14a1 1 0 11-2 0V5.414L7.707 8.707a1 1 0 11-1.414-1.414l5-5a1 1 0 011.414 0l5 5a1 1 0 010 1.414z" fill="gray"/></svg>
